!!!!SEGMENT: pl-wnifc--6829-n--001_wronski-adam--podkoweczki-ognia-dajcie-op-128-mazur-no-1.krn
!!!cenid: 18xx:4063
!!!COM: Wroński, Adam
!!!COM-rismID: pe50044737
!!!CDT: ~1850-1915/12/17
!!!CNT: Polish
!!!GTL: Podkóweczki, ognia dajcie! op. 128
!!!OTL: Mazur No. 1
!!!OMV: 001
!!!PDT:
!!!AGN:
!!!SMS-siglum: PL-Wnifc
!!!SMS-shelfmark: 6829/n
!!!SMS-shelfwork: 001-001 G
!!!SMS-variant:
!!!SMS-altvar:
!!!NIFC-rismSourceID: 1001160755
!!!NIFC-rismChildID: 1001160755
!!!NIFC-islandoraID: nifc:213786
!!!URL-pdf-islandora: https://repozytorium.nifc.pl/islandora/object/nifc%3A213786/datastream/PDF/view
!!!URL-scan: https://polish.musicsources.pl/pl/lokalizacje/galeria/druki-muzyczne/16946-podkoweczki-dajcie-ognia/2 @EN{Scan on Polish Music Sources Website} @PL{Skany w portalu Dziedzictwo Muzyki Polskiej w otwartym dostępie}
!!!ONB-nifc: UWAGA: w zbiorze 3 Mazury numerowane 001-003
!!!AIN: 1 piano
!!!key: D
**kern	**kern	**dynam
*part1	*part1	*part1
*staff2	*staff1	*
*>[A,A,B,B,A,C,C,A]	*>[A,A,B,B,A,C,C,A]	*
*>A	*>A	*
*I"Fortepian	*I"Fortepian	*
*I'	*I'	*
*Ipiano	*Ipiano	*
*ICklav	*ICklav	*
*clefF4	*clefG2	*
*k[f#c#]	*k[f#c#]	*
*D:	*D:	*
*M3/8	*M3/8	*
=1	=1	=1
!	!LO:TX:a:B:t=Mazur.\nNo. 1.	!
!LO:TX:b:t=[segno|larger]	!LO:TX:a:t=[segno|larger]	!
.	(8qee/	mf
8DL 8AA 8FF# 8DD\	16.dd\LL)	.
.	32cc#\JJk	.
8A 8F# 8D\	16dd\LL	.
.	16ee\	.
8AJ 8F# 8D\	16ff#\	.
.	16gg\JJ	.
=2	=2	=2
.	(8qbb/	.
8AL 8F# 8D\	16.aa\LL)	.
.	32gg#X\JJk	.
8A 8F# 8D\	8aa\L	.
8AJ 8F# 8D\	16ff#\L	.
.	16dd\JJ	.
=3	=3	=3
8DL 8DD\	16.bb\LL	f
.	32ccc#\JJk	.
8B 8G 8D\	8ddd\L	.
8BJ 8G 8D\	16ccc#\L	.
.	16bb\JJ	.
=4	=4	=4
8AL 8F# 8D\	16.aa\LL	.
.	32gg#X\JJk	.
8A 8F# 8D\	8bb\L	.
8AJ 8F# 8D\	8aa\J	.
=5	=5	=5
8BL 8G 8D\	16.bb\LL	f
.	32ccc#\JJk	.
8B 8G 8D\	16eee\LL	.
.	16ddd\	.
8BJ 8G 8D\	16ccc#\	.
.	16bb\JJ	.
!!LO:LB:g=original
=6	=6	=6
8AL 8F# 8D\	16.aa\LL	.
.	32gg#X\JJk	.
8A 8F# 8D\	8bb\L	.
8AJ 8F# 8D\	8aa\J	.
=7	=7	=7
.	(>8qa/	.
8AA 8AAA/	8aa\)	.
4c# 4A 4G\	8.gg\L	.
.	16aa\Jk	.
=8	=8	=8
8D\L	16.ff#\LL	.
.	32aa\JJk	.
8d 8A 8F#\	8ff#\L	.
8dJ 8A 8F#\	8aa\J	.
=9	=9	=9
8AA\L	16.ee\LL	.
.	32ff#\JJk	.
8c# 8A 8G\	8gg\L	.
.	(8qaa/	.
8c#J 8A 8G\	8gg\J)	.
=10	=10	=10
8D\L	16.ff#\LL	.
.	32gg\JJk	.
8d 8A 8F#\	8bb\L	.
8dJ 8A 8F#\	8aa\J	.
=11	=11	=11
.	(>8qa/	.
8AA 8AAA/	8aa\)	.
4c# 4A 4G\	8.gg\L	.
.	16aa\Jk	.
!!LO:LB:g=original
=12	=12	=12
8D\L	16.ff#\LL	.
.	32aa\JJk	.
8d 8A 8F#\	8ff#\L	.
8dJ 8A 8F#\	8aa\J	.
=13	=13	=13
8AA\L	16ee\LL	.
.	16ff#\JJ	.
!	!LO:TUP:a:problem:klamra łukowa	!
8c# 8A 8G\	24gg\LL	.
.	24aa\	.
.	24gg\JJ	.
8c#J 8A 8G\	16ff#\LL	.
.	16ee\JJ	.
=14	=14	=14
8dL 8A 8F#\	8dd\L	.
8DJ 8DD\	8dddJ 8aa 8ff# 8dd\	.
8r	8r	.
!	!LO:TX:b:i:t=Fine.:rj	!
=15:|!|:	=15:|!|:	=15:|!|:
*>B	*>B	*
*k[f#c#g#]	*k[f#c#g#]	*
8AAL 8AAA\	16.ee\LL	f
.	32aa\K	.
8c# 8A 8E\	16.gg#\	.
.	32aa\K	.
8AAJ 8AAA\	16.bb\	.
.	32aa\JJk	.
=16	=16	=16
8DL 8DD\	16.gg#\LL	.
.	32ff#\JJk	.
8B 8F# 8D\	8ee#X\L	.
8BJ 8F# 8D\	8ff#\J	.
=17	=17	=17
8EL 8EE\	16.ee\LL	.
.	32gg#\K	.
8d 8G# 8E\	16.bb\	.
.	32gg#\K	.
8dJ 8G# 8E\	16.bb\	.
.	32ddd\JJk	.
!!LO:LB:g=original
=18	=18	=18
8AA\L	16.fff#\LL	.
.	32eee\JJk	.
8c# 8A 8E\	8ddd#X\L	.
8c#J 8A 8E\	8eee\J	.
=19	=19	=19
8AAL 8AAA\	16.ee\LL	.
.	32aa\K	.
8c# 8A 8E\	16.gg#\	.
.	32aa\K	.
8C#J 8CC#\	16.bb\	.
.	32aa\JJk	.
=20	=20	=20
8DL 8DD\	16.gg#\LL	.
.	32ff#\JJk	.
8B 8F# 8D\	8ee#X\L	.
8BJ 8F# 8D\	8ff#\J	.
=21	=21	=21
8EL 8EE\	8eee\L	.
!	!LO:TUP:a:problem:klamra łukowa	!
8d 8G# 8E\	24ddd\L	.
.	24eee\	.
.	24ddd\JJ	.
8dJ 8G# 8E\	16ccc#\LL	.
.	16bb\JJ	.
=22	=22	=22
8c#L 8A/	8aa\L	.
8AAJ 8AAA/	8aaaJ 8eee 8ccc# 8aa\	.
8r	8r	.
!LO:TX:b:i:t=D. S. al Fine.:rj	!	!
!LO:TX:b:t=[segno|larger]	!LO:TX:a:t=[segno|larger]	!
!!LO:LB:g=original
=23:|!	=23:|!	=23:|!
*>C	*>C	*
*k[f#]	*k[f#]	*
*M3/8	*M3/8	*
!	!LO:TX:a:B:t=Trio.	!LO:DY:rj
8GG\L	8g:L 8d: 8B':/	mf
8G\	8d 8B'/	.
8BB\J	8gJ 8d'/	.
=24	=24	=24
8A 8E 8C\	8f# 8c/	.
4A 4E 4C\	4e 4c/	.
=25	=25	=25
8DD\L	8ee 8cc\	.
8c 8A 8F# 8D\	8.f#\L	.
8cJ 8A 8F# 8D\	.	.
.	16eeJk 16cc\	.
=26	=26	=26
8GG\L	16.eeLL 16.cc\	.
.	32ddJJk 32b\	.
8B 8G 8D\	8cc#XL 8a#X\	.
8BJ 8G 8D\	8ddJ 8b\	.
!!LO:LB:g=original
=27	=27	=27
8GGL 8GGG\	8gg:L 8dd: 8b:\	f
8B 8G 8D\	16ddL 16b\	.
.	16gg\	.
8BBJ 8BBB\	16dd\	.
.	16gg\JJ	.
=28	=28	=28
8CL 8CC\	8ff#\	.
8c 8A 8E\	4ee 4cc\	.
8cJ 8A 8E\	.	.
=29	=29	=29
8DL 8DD\	16eee\LL	.
.	16ddd\JJ	.
!	!LO:TUP:a:problem:klamra łukowa	!
8c 8F# 8D\	24ccc\LL	.
.	24ddd\	.
.	24ccc\JJ	.
8cJ 8F# 8D\	16bb\LL	.
.	16aa\JJ	.
=30	=30	=30
8BL 8G/	8gg\L	.
8GGJ 8GGG/	8gggJ 8ddd 8bb 8gg\	.
8r	8r	.
!LO:TX:b:i:t=No 1. D. C. al Fine.	!	!
=:|!	=:|!	=:|!
*-	*-	*-
!!!system-decoration: {(*)}
!!!RDF**kern: > = above
!!!RDF**kern: < = below
!!!ENC: Filip Voros
!!!END: 2022-08-17
!!!ENC: Andrzej Kubiczek
!!!END: 2022-09-17
!!!YEC: Copyright 2022 Narodowy Instytut Fryderyka Chopina (https://polishscores.org)
!!!YEM: License CC-BY-4.0 (https://creativecommons.org/licenses/by/4.0)
